X: 33
T:Firs. JMP.033
M:2/4
L:1/8
Q:200
S:John Miller MS. Perth, 1799.(for the fife)
R:March
O:Scotland
A:Perth
N:1 - no bar line her
N:1 - No bar line her
H:1799
Z:vmp.C.  Graebe
K:G major
F>GAA | BAGF | FE/E/  EE "1" | E3 E |!
 E>FGG | AGFE | FD/D/ DD | D3 :|!
|:D | F3 A | F3 A | GE/E/ EE | E3 G |!
E3G| EBAG |  FD/D/ DD | D3 :|]
